X:1
T:Admiral On The Bow
L:1/4
M:4/4
Q:1/4=84
K:E Minor
   E B A> B|B E E>  F |G G    F D|B,4|
   E B A> B|B E E>  F |G G    F D|E4:|
   B d d> e|d A A G/A/|B A/G/ F D|B,4|
[1 B d d> e|d A A G/A/|B A/G/ F D|E4:|
[2 E B A> B|B E E>  F |G G    F D|E4|]
